X: 3
P: Part C
R: jig
M: 6/8
L: 1/8
K: G
|: "G"gdB GBd|"G"g2 f a2 g|"Am"f2 e c2 A|"Am"E3-E3|"D7"ecA FAc|"D7"f3 e3| [1 "D"d^cd ed=c|"G"B3-B3 :| [2 "D7"d^cd e2 d|"G"G3-G3 ||
|: "C"E3-EDC|"C"E3-E3-|"Dm"F3-FED|"Dm"F3-"F"F3|"G7"Ged cBA|"G7"^A2 B f3| [1 "G7"^A2 B f3|"C"^F2 G e3 :| [2 "G7"^FGf e2 d |"C"c3-c3 ||

